icons/sqlite.svg

<svg width="16" height="16" viewBox="0 0 16 16" fill="none" xmlns="http://www.w3.org/2000/svg">
<path fill-rule="evenodd" clip-rule="evenodd" d="M9.35552 15C9.2265 12.3131 10.0229 5.37576 12.5 3C11 6 10.1919 7.83468 10 11C10.1282 10.1027 11 9.5 11.5 9.5C11.7916 8.91681 12.1399 8.29584 12.4971 7.66278L12 7L12.633 7.42199C12.8468 7.04301 13.0617 6.66089 13.2675 6.28108L12 5.82029L13.5054 5.83443C14.559 3.81824 15.2391 1.92932 14 1C12.5068 0.104096 9.60909 2.74432 8.58688 5.7825L9.5 7L8.43497 6.28998C8.33164 6.68459 8.26223 7.0829 8.2337 7.47827L9 8.5L8.22001 7.98C8.22994 8.50218 8.31779 9.0141 8.5 9.5C8.72362 10.0963 8.97735 12.0776 9.18445 13.6948C9.24631 14.1779 9.30402 14.6285 9.35552 15Z" fill="#0080C8"/>
<path fill-rule="evenodd" clip-rule="evenodd" d="M7.41817 7.2153C6.76444 7.19477 6.11303 7.12283 5.47 7C4.58587 6.8428 3.74447 6.50215 3 6V8.5C3 9.29988 5.08038 9.95116 7.70167 9.99738C7.49865 9.50795 7.29861 8.63647 7.41817 7.2153ZM8.09992 11.2199C8.06662 11.2201 8.03331 11.2201 8 11.22C7.11473 11.239 6.2299 11.1653 5.36 11C4.5132 10.8316 3.70997 10.4913 3 10V12.5C3 13.33 5.24 14 8 14C8.14593 14 8.2904 13.9981 8.43316 13.9945C8.35283 13.1606 8.21452 12.067 8.09992 11.2199ZM9.75068 2.09073C9.41626 2.05523 9.06464 2.03111 8.7 2.02L8 2H7.3C5.3 2.08 3.74 2.5 3.19 3.06C3.13072 3.11706 3.08339 3.18536 3.05077 3.2609C3.01814 3.33644 3.00089 3.41772 3 3.5V4.5C3 5.28881 5.0232 5.93311 7.59316 5.99511C7.95714 4.38426 8.90409 3.00687 9.75068 2.09073Z" fill="#00A4C8"/>
</svg>

<svg xmlns="http://www.w3.org/2000/svg" width="16" height="16" fill="none"><path fill="#0080C8" fill-rule="evenodd" d="M9.356 15c-.13-2.687.667-9.624 3.144-12-1.5 3-2.308 4.835-2.5 8 .128-.897 1-1.5 1.5-1.5.292-.583.64-1.204.997-1.837L12 7l.633.422c.214-.379.429-.761.635-1.14L12 5.82l1.505.014C14.56 3.818 15.24 1.93 14 1 12.507.104 9.61 2.744 8.587 5.782L9.5 7l-1.065-.71a6.567 6.567 0 0 0-.201 1.188L9 8.5l-.78-.52c.01.522.098 1.034.28 1.52.224.596.477 2.578.684 4.195.062.483.12.934.172 1.305Z" clip-rule="evenodd"/><path fill="#00A4C8" fill-rule="evenodd" d="M7.418 7.215A12.47 12.47 0 0 1 5.47 7 6.43 6.43 0 0 1 3 6v2.5c0 .8 2.08 1.451 4.702 1.497-.203-.49-.403-1.36-.284-2.782ZM8.1 11.22H8c-.885.019-1.77-.055-2.64-.22A6.31 6.31 0 0 1 3 10v2.5c0 .83 2.24 1.5 5 1.5.146 0 .29-.002.433-.005A80.221 80.221 0 0 0 8.1 11.22Zm1.65-9.13a14.02 14.02 0 0 0-1.05-.07L8 2h-.7c-2 .08-3.56.5-4.11 1.06A.62.62 0 0 0 3 3.5v1c0 .789 2.023 1.433 4.593 1.495.364-1.61 1.311-2.988 2.158-3.904Z" clip-rule="evenodd"/></svg>
